!!!OTL: Kaeuzlein
!!!ARE: Europa, Mitteleuropa, Deutschland
!!!SCT: A0173
!!!YEM: Copyright 1995, estate of Helmut Schaffrath.
**kern
*ICvox
*Ivox
*M6/4
*k[f#]
*G:
{4g
=1
2g
4g
2b
4b
=2
2g
4a
2b}
{4cc
=3
2dd
4cc
2b
4a
=4
[2.g
2g]}
{4g
=5
2g
4g
2b
4b
=6
2g
4a
2b}
{4cc
=7
2dd
4cc
2b
4a
=8
[2.g
2g]}
{4g
=9
2g
4b
2a
4a
=10
4.d
8e
4f#
2g}
{4g
=11
4b
4dd
4cc
2b
4a
=12
[2.g
2g]}
==
!!!AGN: Romanze, Ballade, Lied
!! Forster III 1549 No. 64.
!!!ONB: ESAC (Essen Associative Code) Database: ALTDEU
!!!AMT: compound duple
!!!AIN: vox
!!!EED: Helmut Schaffrath
!!!EEV: 1.0
*-
